numeric-0-box-outline.svg

<svg fill="currentColor" viewBox="0 0 24 24"><path d="M19 19V5H5v14zm0-16a2 2 0 0 1 2 2v14a2 2 0 0 1-2 2H5a2 2 0 0 1-2-2V5a2 2 0 0 1 2-2zm-8 4h2a2 2 0 0 1 2 2v6a2 2 0 0 1-2 2h-2a2 2 0 0 1-2-2V9a2 2 0 0 1 2-2m0 2v6h2V9z"/></svg>

<svg  viewBox="0 0 24 24" fill="currentColor"><path  d="M19,19V5H5V19H19M19,3A2,2 0 0,1 21,5V19A2,2 0 0,1 19,21H5A2,2 0 0,1 3,19V5A2,2 0 0,1 5,3H19M11,7H13A2,2 0 0,1 15,9V15A2,2 0 0,1 13,17H11A2,2 0 0,1 9,15V9A2,2 0 0,1 11,7M11,9V15H13V9H11Z"/></svg>
